lib/brands/icons/google-one.svg

<svg xmlns="http://www.w3.org/2000/svg" fill="none" aria-hidden="true" viewBox="0 0 48 48"><g id="google-one-Icon"><g id="Group"><path id="Vector" fill="#34A853" d="M33.9305 35.3595V39.5547C33.9305 42.0091 31.9465 43.9999 29.499 43.9999C27.0514 43.9999 25.0674 42.0114 25.0674 39.5547V28.5713L33.9305 35.3595Z"/><path id="Vector_2" fill="url(#paint0_linear_94_17978)" d="M33.9305 8.44513V35.3596L25.0674 28.5713V17.8674L32.3193 11.8722C33.3828 10.995 33.9305 9.72461 33.9305 8.44513Z"/><path id="Vector_3" fill="#EA4335" d="M33.9283 8.29073C33.9305 8.34073 33.9305 8.39073 33.9305 8.443C33.9305 9.72247 33.3828 10.9929 32.3193 11.8701L25.0674 17.8652V8.44527C25.0674 6.9908 25.7651 5.69542 26.8491 4.8841C26.9264 4.82501 27.0036 4.77047 27.0877 4.7182C27.1264 4.6932 27.1627 4.6682 27.2014 4.64547C27.2718 4.60002 27.3468 4.55911 27.415 4.52275L27.6104 4.42503L27.7741 4.35003C27.84 4.32276 27.9059 4.29549 27.9763 4.27049C28.0422 4.24549 28.1127 4.22277 28.1808 4.20004C28.3081 4.16141 28.4377 4.12505 28.5717 4.09778C28.6104 4.08868 28.6513 4.08187 28.6945 4.07278C28.724 4.06823 28.7535 4.06369 28.7831 4.05914C28.8354 4.05005 28.8876 4.04323 28.9399 4.03642C29.0013 4.02732 29.0626 4.02051 29.1262 4.01596C29.1762 4.01142 29.2262 4.00687 29.2762 4.0046C29.349 4.00233 29.424 4.00005 29.499 4.00005H29.5012C29.6626 4.00005 29.8194 4.00914 29.9785 4.02505C30.0557 4.03414 30.1353 4.04551 30.2171 4.05914C30.2944 4.0705 30.3716 4.08641 30.4534 4.10459C30.5307 4.1205 30.608 4.14095 30.6853 4.16368C30.7489 4.17959 30.8148 4.20004 30.8784 4.22277C31.0034 4.26368 31.1284 4.30913 31.2466 4.3614C31.3057 4.3864 31.3648 4.41367 31.4238 4.44094C31.4988 4.4773 31.5738 4.51593 31.6466 4.55457C31.7556 4.61593 31.8602 4.67956 31.9647 4.75001C31.9761 4.7591 31.9875 4.76592 31.9988 4.77274C32.1102 4.85001 32.217 4.93409 32.3238 5.02045C32.3761 5.0659 32.4283 5.10908 32.4806 5.15681L32.4852 5.16135C32.5352 5.20908 32.5851 5.2568 32.6351 5.3068C32.6851 5.3568 32.7351 5.40907 32.7829 5.45907C32.8806 5.56361 32.9692 5.67496 33.0533 5.78859C33.1124 5.86586 33.1669 5.94768 33.2192 6.02722C33.2442 6.06585 33.2692 6.10221 33.2919 6.14085C33.3374 6.2113 33.3783 6.28629 33.4146 6.35447C33.4419 6.40901 33.4851 6.49765 33.5124 6.54992C33.5374 6.60446 33.5624 6.659 33.5851 6.71354C33.6124 6.77945 33.6396 6.84763 33.6646 6.91581C33.6896 6.98171 33.7124 7.05216 33.7328 7.12034C33.7624 7.21806 33.7874 7.31578 33.8101 7.41123C33.8237 7.45668 33.8328 7.49986 33.8396 7.54532C33.8533 7.60895 33.8646 7.67031 33.876 7.73167C33.8851 7.78167 33.8896 7.83166 33.8964 7.88166C33.9055 7.94302 33.9123 8.00438 33.9169 8.06802C33.9214 8.11801 33.926 8.16801 33.9283 8.21801C33.926 8.24073 33.9283 8.26573 33.9283 8.29073Z"/><path id="Vector_4" fill="#FBBC04" d="M26.6765 5.01304C26.731 4.96759 26.7879 4.92441 26.8447 4.8835C25.7652 5.69482 25.0675 6.98793 25.0675 8.44467V17.8669L21.3041 20.9826C20.4814 21.6667 19.486 21.9962 18.4929 21.9962C17.2179 21.9962 15.9521 21.4462 15.0794 20.3804C13.5272 18.485 13.7954 15.6852 15.6794 14.1262L26.6765 5.01304Z"/></g></g><defs><linearGradient id="paint0_linear_94_17978" x1="29.499" x2="29.499" y1="35.5687" y2="8.43445" gradientUnits="userSpaceOnUse"><stop stop-color="#1A73E8"/><stop offset="1" stop-color="#4285F4"/></linearGradient></defs></svg>

<svg xmlns="http://www.w3.org/2000/svg" fill="none" aria-hidden="true" viewBox="0 0 48 48"><path fill="#34A853" d="M33.93 35.36v4.195A4.439 4.439 0 0 1 29.499 44a4.437 4.437 0 0 1-4.432-4.445V28.57l8.863 6.788Z"/><path fill="url(#a)" d="M33.93 8.445V35.36l-8.863-6.789V17.867l7.252-5.995a4.428 4.428 0 0 0 1.611-3.427Z"/><path fill="#EA4335" d="M33.928 8.29c.002.05.002.1.002.153 0 1.28-.548 2.55-1.611 3.427l-7.252 5.995v-9.42a4.439 4.439 0 0 1 2.02-3.727c.039-.025.075-.05.114-.073.07-.045.145-.086.213-.122l.196-.098.164-.075c.066-.027.131-.054.202-.08.066-.024.136-.047.204-.07.128-.039.257-.075.391-.102.039-.01.08-.016.123-.025l.089-.014a3.725 3.725 0 0 1 .343-.043A3.318 3.318 0 0 1 29.498 4h.003c.161 0 .318.01.477.025a5.006 5.006 0 0 1 .475.08c.077.016.155.036.232.059.063.016.13.036.193.059.125.04.25.086.368.138.06.025.118.053.177.08a3.98 3.98 0 0 1 .541.309c.012.01.023.016.034.023.112.077.219.161.325.247.053.046.105.09.157.137l.005.004.15.146a3.724 3.724 0 0 1 .418.482c.059.077.113.159.166.238.025.039.05.075.072.114.046.07.087.145.123.213.027.055.07.144.098.196a5.3 5.3 0 0 1 .152.366 4.963 4.963 0 0 1 .175.63c.014.063.025.124.037.186.009.05.013.1.02.15.009.061.016.122.02.186.005.05.01.1.012.15-.002.023 0 .048 0 .073Z"/><path fill="#FBBC04" d="M26.676 5.013a4.444 4.444 0 0 0-1.609 3.432v9.422l-3.763 3.116a4.375 4.375 0 0 1-2.812 1.013c-1.275 0-2.54-.55-3.413-1.616a4.458 4.458 0 0 1 .6-6.254l10.997-9.113Z"/><defs><linearGradient id="a" x1="29.498" x2="29.498" y1="35.569" y2="8.434" gradientUnits="userSpaceOnUse"><stop stop-color="#1A73E8"/><stop offset="1" stop-color="#4285F4"/></linearGradient></defs></svg>
